images/svg/calendar.svg

<?xml version="1.0" encoding="utf-8"?>
<!-- Generated by IcoMoon.io -->
<!DOCTYPE svg PUBLIC "-//W3C//DTD SVG 1.1//EN" "http://www.w3.org/Graphics/SVG/1.1/DTD/svg11.dtd">
<svg version="1.1" xmlns="http://www.w3.org/2000/svg" xmlns:xlink="http://www.w3.org/1999/xlink" width="59" height="64" viewBox="0 0 59 64">
<path d="M4.571 59.429h10.286v-10.286h-10.286v10.286zM17.143 59.429h11.429v-10.286h-11.429v10.286zM4.571 46.857h10.286v-11.429h-10.286v11.429zM17.143 46.857h11.429v-11.429h-11.429v11.429zM4.571 33.143h10.286v-10.286h-10.286v10.286zM30.857 59.429h11.429v-10.286h-11.429v10.286zM17.143 33.143h11.429v-10.286h-11.429v10.286zM44.571 59.429h10.286v-10.286h-10.286v10.286zM30.857 46.857h11.429v-11.429h-11.429v11.429zM18.286 16v-10.286q0-0.464-0.339-0.804t-0.804-0.339h-2.286q-0.464 0-0.804 0.339t-0.339 0.804v10.286q0 0.464 0.339 0.804t0.804 0.339h2.286q0.464 0 0.804-0.339t0.339-0.804zM44.571 46.857h10.286v-11.429h-10.286v11.429zM30.857 33.143h11.429v-10.286h-11.429v10.286zM44.571 33.143h10.286v-10.286h-10.286v10.286zM45.714 16v-10.286q0-0.464-0.339-0.804t-0.804-0.339h-2.286q-0.464 0-0.804 0.339t-0.339 0.804v10.286q0 0.464 0.339 0.804t0.804 0.339h2.286q0.464 0 0.804-0.339t0.339-0.804zM59.429 13.714v45.714q0 1.857-1.357 3.214t-3.214 1.357h-50.286q-1.857 0-3.214-1.357t-1.357-3.214v-45.714q0-1.857 1.357-3.214t3.214-1.357h4.571v-3.429q0-2.357 1.679-4.036t4.036-1.679h2.286q2.357 0 4.036 1.679t1.679 4.036v3.429h13.714v-3.429q0-2.357 1.679-4.036t4.036-1.679h2.286q2.357 0 4.036 1.679t1.679 4.036v3.429h4.571q1.857 0 3.214 1.357t1.357 3.214z"></path>
</svg>

<svg xmlns="http://www.w3.org/2000/svg" width="59" height="64"><path d="M4.57 59.43h10.29V49.14H4.57v10.29zm12.57 0h11.43V49.14H17.14v10.29zM4.57 46.86h10.29V35.43H4.57v11.43zm12.57 0h11.43V35.43H17.14v11.43zM4.57 33.14h10.29V22.86H4.57v10.28zm26.29 26.29h11.43V49.14H30.86v10.29zM17.14 33.14h11.43V22.86H17.14v10.28zm27.43 26.29h10.29V49.14H44.57v10.29zM30.86 46.86h11.43V35.43H30.86v11.43zM18.29 16V5.71q0-.46-.34-.8t-.8-.34h-2.3q-.46 0-.8.34t-.34.8V16q0 .46.34.8t.8.34h2.3q.46 0 .8-.34t.34-.8zm26.28 30.86h10.29V35.43H44.57v11.43zM30.86 33.14h11.43V22.86H30.86v10.28zm13.71 0h10.29V22.86H44.57v10.28zM45.71 16V5.71q0-.46-.34-.8t-.8-.34h-2.29q-.46 0-.8.34t-.34.8V16q0 .46.34.8t.8.34h2.3q.45 0 .8-.34t.33-.8zm13.72-2.29v45.72q0 1.85-1.36 3.21T54.86 64H4.57q-1.85 0-3.21-1.36T0 59.43V13.7q0-1.85 1.36-3.21t3.21-1.36h4.57V5.71q0-2.35 1.68-4.03T14.86 0h2.28q2.36 0 4.04 1.68t1.68 4.03v3.43h13.71V5.71q0-2.35 1.68-4.03T42.3 0h2.28q2.36 0 4.04 1.68t1.68 4.03v3.43h4.57q1.86 0 3.21 1.36t1.36 3.21z"/></svg>
